dist/images/calendar-gray.svg

<svg width="14" height="14" viewBox="0 0 14 14" fill="none" xmlns="http://www.w3.org/2000/svg">
<g clip-path="url(#clip0_41399_355)">
<path d="M11.6666 1.74992H11.0833V0.583252H9.91663V1.74992H4.08329V0.583252H2.91663V1.74992H2.33329C1.69163 1.74992 1.16663 2.27492 1.16663 2.91659V12.2499C1.16663 12.8916 1.69163 13.4166 2.33329 13.4166H11.6666C12.3083 13.4166 12.8333 12.8916 12.8333 12.2499V2.91659C12.8333 2.27492 12.3083 1.74992 11.6666 1.74992ZM11.6666 12.2499H2.33329V4.66658H11.6666V12.2499Z" fill="#999999"/>
</g>
<defs>
<clipPath id="clip0_41399_355">
<rect width="14" height="14" fill="white"/>
</clipPath>
</defs>
</svg>

<svg width="14" height="14" fill="none" xmlns="http://www.w3.org/2000/svg"><g clip-path="url(#clip0_41399_355)"><path d="M11.667 1.75h-.584V.583H9.917V1.75H4.083V.583H2.917V1.75h-.584a1.17 1.17 0 00-1.166 1.167v9.333a1.17 1.17 0 001.166 1.167h9.334a1.17 1.17 0 001.166-1.167V2.917a1.17 1.17 0 00-1.166-1.167zm0 10.5H2.333V4.667h9.334v7.583z" fill="#999"/></g><defs><clipPath id="clip0_41399_355"><path fill="#fff" d="M0 0h14v14H0z"/></clipPath></defs></svg>
